X:101
T:Larry Redican's
N:Larry Redican
R:jig
M:6/8
L:1/8
K:ADor
G|EAA EAc|B3 GBd|edB edB|c3 BAG|\
E3 ABc|B3 GBd|edB EdB|1 BAG A2 G:|2 BAG A2 B||
def g3|age edB|def g3|age age|\
def gab|age edB|eBB edB|1 BAG A2 B:|2 BAG A2 G||
